X: 5
T: Carolan's Welcome
R: waltz
M: 3/4
L: 1/8
K: Amin
cB |: A2 cd e2 | A2 cd e2 | de dc BA | (3GAB G2 E2 |
c3B A2 | d3c B2 | ce E2 G2 | A4 cB |
A2 cd e2 | A2 cd e2 | de dc BA | (3GAB G2 E2 |
g3f e2 | a3g ed | ce dc Bc | [1 A4 cB :| [2 A4 A2 |
|: e2 ab c'2 | e2 ab c'2 | c'b ag ab | c'2 e2 e2 |
f2 af ed | e2 ge dc | d2 e2 g2 | a6 |
ag eg a2 | gede g2 | ed cd ec | d2 B2 (3GAB |
c3B A2 | d3c B2 | ce E2 G2 | [1 A4 A2 :| [2 A6 |]


Tune 1055	Setting 1055

